X: 24242
T: Lord Of The Dance
R: polka
M: 2/4
K: Gmajor
|:D|G/F/G/A/ B/A/B/c/|d/e/d/c/ BB|AA AB|c/B/A/G/ FD|
G/F/G/A/ B/A/B/c/|d/e/d/c/ BB|AA A/c/B/A/|GB G:|
|:z|d2 B>A|B/c/B/A/ GG|BB/c/ dc/B/|AA AD|
GG GA|B/A/B/c/ dc/B/|AA A/c/B/A/|GB G:|

